X: 67
T: O, który światem władasz i królujesz wiecznie,
C: Mikołaj Gomółka
%%abc-version 2.0
%%abcx-abcm2ps-target-version 5.9.1 (29 Sep 2008)
%%abc-creator hum2abc beta
%%abcx-conversion-date 2021/10/04 07:59:09
%%abc-edited-by Leszek Kubiak
%%abcx-initial-encoding-date data 2020-02-17
%%humdrum-veritas 3974601217
%%humdrum-veritas-data 668857713
%%linebreak <none>
%%barnumbers 0
L: 1/4
M: C|
N: Derived from pl-wn--sd-xvi-qu-273--068_gomolka-mikolaj--o-ktory-swiatem-wladasz-i-krolujesz-wiecznie.krn
%%staves [1 2 3 4]
V: 1
V: 2 clef=alto
V: 3 clef=tenor
V: 4 clef=bass
K: C
[V:1] A4A2A2 [|] 
[V:2] F4E2E2 [|] 
[V:3] D4^C2E2 [|] 
[V:4] D,4A,2A,2 [|] 
[V:1] c2A2B4 [|] 
[V:2] A2A2G3F [|] 
[V:3] F2>E2DCD2 [|] 
[V:4] F,2F,2G,4 [|] 
[V:1] A4F4 [|] 
[V:2] E2E2D4 [|] 
[V:3] C4A,4 [|] 
[V:4] A,2A,,2D,3C, [|] 
[V:1] G4F2F4 [|] 
[V:2] D2D4C2 [|] 
[V:3] B,4B,2A,2 [|] 
[V:4] B,,A,,G,,4A,,2 [|] 
[V:1] E2F4 [|] 
[V:2] B,2G,2A,3A, [|] 
[V:3] G,4F,6 [|] 
[V:4] B,,2C,2F,,4 [|] 
[V:1] E4E2E2 [|] 
[V:2] C4C2G,2 [|] 
[V:3] A,2G,2CB, [|] 
[V:4] A,,4C,2C,2 [|] 
[V:1] ^F4G3G [|] 
[V:2] D2>C2=B,2=B,2 [|] 
[V:3] A,G,A,2G,3G, [|] 
[V:4] D,4G,,3G,, [|] 
[V:1] E4F3F [|] 
[V:2] C4C3C [|] 
[V:3] A,2G,2F,3A, [|] 
[V:4] C,4F,,3F,, [|] 
[V:1] D2D4C2 [|] 
[V:2] B,2G,2A,4 [|] 
[V:3] G,2D,2F,2E,2 [|] 
[V:4] G,,2B,,2A,,4 [|] 
[V:1] D32 [|] 
[V:2] A,32 [|] 
[V:3] D,32 [|] 
[V:4] D,32 [|] 


